X:1
T:Hell on the Wabash
B:Bruce & Emmett
M:2/4
L:1/8
Q:1/8=200
K:A
|: (3e/f/g/|aa Az/B/|c/d/e/c/ Az/f/|=gg =Gz/A/|B/c/d/B/ =G z/^g/|aa Az/B/|c/d/e/c/ A (3B/A/G/|A/c/ (3e/f/g/ a/e/f/d/|c/A/B/G/ A :|
|: A|c/e/ z/e/ e/e/c/A/|c/e/ z/e/ e/e/c/A/|B/d/ z/d/ d/d/B/=G/|B/d/ z/d/ d/d/B/=G/|c/e/ z/e/ e/e/c/A/|c/e/ z/e/ e/e/c/A/|A/c/ (3d/e/f/ a/e/f/d/|c/A/B/G/ A :|
